resources/haticons/SVG/heroku.svg

<!-- Generated by IcoMoon.io -->
<svg version="1.1" xmlns="http://www.w3.org/2000/svg" width="24" height="24" viewBox="0 0 24 24">
<title>heroku</title>
<path fill="#430098" d="M20.61 0h-17.22c-1.201 0-2.16 0.96-2.16 2.16v19.681c0 1.198 0.959 2.159 2.16 2.159h17.22c1.2 0 2.159-0.961 2.159-2.159v-19.681c0.001-1.2-0.958-2.16-2.159-2.16zM21.57 21.841c0 0.539-0.421 0.96-0.96 0.96h-17.22c-0.54 0-0.96-0.421-0.96-0.96v-19.681c0-0.54 0.42-0.961 0.96-0.961h17.22c0.539 0 0.96 0.421 0.96 0.961zM6.63 20.399l2.7-2.399-2.7-2.4zM16.35 10.68c-0.479-0.48-1.379-1.080-2.879-1.080-1.621 0-3.301 0.421-4.5 0.84v-6.84h-2.4v10.38l1.68-0.78c0 0 2.76-1.26 5.16-1.26 1.2 0 1.5 0.66 1.5 1.26v7.2h2.4v-7.2c0.059-0.179 0.059-1.501-0.961-2.52zM13.17 7.5h2.4c1.080-1.26 1.62-2.521 1.8-3.9h-2.399c-0.241 1.379-0.841 2.64-1.801 3.9z"></path>
</svg>

<svg xmlns="http://www.w3.org/2000/svg" width="24" height="24"><path fill="#430098" d="M20.61 0H3.39a2.15 2.15 0 0 0-2.16 2.16v19.681A2.15 2.15 0 0 0 3.39 24h17.22a2.15 2.15 0 0 0 2.159-2.159V2.16A2.149 2.149 0 0 0 20.61 0zm.96 21.841c0 .539-.421.96-.96.96H3.39a.948.948 0 0 1-.96-.96V2.16c0-.54.42-.961.96-.961h17.22a.95.95 0 0 1 .96.961zM6.63 20.399L9.33 18l-2.7-2.4zm9.72-9.719c-.479-.48-1.379-1.08-2.879-1.08-1.621 0-3.301.421-4.5.84V3.6h-2.4v10.38l1.68-.78s2.76-1.26 5.16-1.26c1.2 0 1.5.66 1.5 1.26v7.2h2.4v-7.2c.059-.179.059-1.501-.961-2.52zM13.17 7.5h2.4c1.08-1.26 1.62-2.521 1.8-3.9h-2.399c-.241 1.379-.841 2.64-1.801 3.9z"/></svg>
